packages/ffe-icons/icons/filled/md/male.svg

<svg xmlns="http://www.w3.org/2000/svg" height="24" viewBox="0 -960 960 960" width="24"><path d="M789.999-753.846V-600q0 12.75-8.628 21.375-8.629 8.624-21.384 8.624-12.756 0-21.371-8.624-8.615-8.625-8.615-21.375v-86.848L547.922-506.154q19.385 28.385 30.731 60.135Q589.999-414.27 589.999-380q0 87.818-61.08 148.909-61.081 61.09-148.884 61.09-87.804 0-148.919-61.08-61.115-61.081-61.115-148.884 0-87.804 61.09-148.919Q292.182-589.999 380-589.999q33.769 0 65.577 11.038 31.808 11.039 59.577 31.039l182.079-182.079H600q-12.75 0-21.375-8.628-8.624-8.629-8.624-21.384 0-12.756 8.624-21.371 8.625-8.615 21.375-8.615h153.846q15.365 0 25.759 10.394t10.394 25.759ZM379.938-530.001q-62.169 0-106.054 43.947-43.885 43.947-43.885 106.116t43.947 106.054q43.947 43.885 106.116 43.885t106.054-43.947q43.885-43.947 43.885-106.116t-43.947-106.054q-43.947-43.885-106.116-43.885Z"/></svg>

<svg xmlns="http://www.w3.org/2000/svg" height="24" viewBox="0 -960 960 960" width="24"><path d="M790-753.85V-600q0 12.75-8.63 21.37-8.63 8.63-21.38 8.63-12.76 0-21.37-8.63Q730-587.25 730-600v-86.85l-182.08 180.7q19.39 28.38 30.73 60.13Q590-414.27 590-380q0 87.82-61.08 148.91T380.03-170q-87.8 0-148.91-61.08Q170-292.16 170-379.97q0-87.8 61.09-148.91Q292.18-590 380-590q33.77 0 65.58 11.04 31.8 11.04 59.57 31.04L687.23-730H600q-12.75 0-21.37-8.63-8.63-8.63-8.63-21.38 0-12.76 8.63-21.37Q587.25-790 600-790h153.85q15.36 0 25.76 10.39Q790-769.21 790-753.85ZM379.94-530q-62.17 0-106.06 43.95Q230-442.11 230-379.94t43.95 106.06Q317.89-230 380.06-230t106.06-43.95Q530-317.89 530-380.06t-43.95-106.06Q442.11-530 379.94-530Z"/></svg>
